X:1
T:Toulouse, 87.87.87 D
T:Toulouse, 87.87.87 D
T:James Ramsey Murray, 1887
T:Public Domain Courtesy of the Cyber Hymnal™
C:James Ramsey Murray, 1887
Z:Public Domain
Z:Courtesy of the Cyber Hymnal™
%%score ( 1 2 ) ( 3 4 )
L:1/8
Q:1/4=95
M:3/4
K:Eb
V:1 treble 
V:2 treble 
V:3 bass 
V:4 bass 
V:1
 E>[EG] | [EB]3 [EB] [Ec]>[EB] | [Ee]2 [EB]2 [Ec]>[EB] | [DA]3 [DF] [DB]>[FA] | [EG]4 E>[EG] | %5
 [EB]3 [EB] [Ec]>[EB] | [Ee]2 [EB]2 [Ec]>[Ec] | [EB]3 [EG] [FA]>[DF] | E4 [DF]>E | %9
 [B,D]3 [FA] [EG]>[DF] | [EG]2 [GB]2 [FA]>[EG] | [DF]3 [EG] [C=A]>[Ec] | [DB]4 E>[EG] | %13
 [EB]3 [EB] [Ec]>[EB] | [Ee]2 [EB]2 [Ec]>[Ec] | [EB]3 [EG] [FA]>[DF] | E4 E>E | %17
 [Ec] [Ec]3 [Ee]>[Ec] | [Ec] [EB]3 [FA]>[EG] | [DF]3 [DF] [DB]>[FA] | [EG]4 E>E | %21
 [Ec] [Ec]3 [Ee]>[Ec] | [Ec] [EB]3 [Ec]>[Ec] | [EB]3 [EG] [FA]>[DF] | E4 |] %25
V:2
 E3/2 x/ | x6 | x6 | x6 | x4 E3/2 x/ | x6 | x6 | x6 | E4 E/ x3/2 | x6 | x6 | x6 | x4 E3/2 x/ | x6 | %14
 x6 | x6 | E4 E>E | x6 | x6 | x6 | x4 E>E | x6 | x6 | x6 | E4 |] %25
V:3
 [E,G,]>[E,B,] | [E,G,]3 [E,G,] [E,A,]>[E,G,] | [E,G,]2 [E,G,]2 A,>[G,B,] | %3
 [F,B,]3 [F,B,] [B,,B,]>[B,,B,] | [E,B,]4 [E,G,]>[E,G,] | [E,G,]3 [E,G,] [E,A,]>[E,G,] | %6
 [E,G,]2 [E,G,]2 A,>A, | [G,B,]3 [E,B,] [B,,B,]>[B,,A,] | [E,G,]4 [B,,A,]>[B,,G,] | %9
 [B,,F,]3 [B,,B,] [B,,B,]>[B,,B,] | [E,B,]2 [E,E]2 [E,B,]>[E,B,] | [F,B,]3 [F,B,] F,>F, | %12
 [B,,F,]4 [E,G,]>[E,G,] | [E,G,]3 [E,G,] [E,A,]>[E,G,] | [E,G,]2 [E,G,]2 A,>A, | %15
 [G,B,]3 [E,B,] [B,,B,]>[B,,A,] | [E,G,]4 [E,G,]>[E,G,] | A, A,3 [A,,C]>[C,A,] | %18
 [E,A,] [E,G,]3 [E,B,]>[E,B,] | [B,,B,]3 [B,,B,] [B,,F,]>[B,,B,] | [E,B,]4 [E,G,]>[E,G,] | %21
 A, A,3 [A,,C]>[C,A,] | [E,A,] [E,G,]3 [A,,A,]>[A,,A,] | [B,,G,]3 [B,,B,] [B,,B,]>[B,,A,] | %24
 [E,G,]4 |] %25
V:4
 x2 | x6 | x4 A,3/2 x/ | x6 | x6 | x6 | x4 A,>A, | x6 | x6 | x6 | x6 | x4 F,>F, | x6 | x6 | %14
 x4 A,>A, | x6 | x6 | A, A,3 x2 | x6 | x6 | x6 | A, A,3 x2 | x6 | x6 | x4 |] %25

